X: 19546
T: James Byrne's
R: slip jig
M: 9/8
K: Dmajor
G2g dBG GFG|EFG ABG FED|G2g dBG GFG|EFG AGF G3:|
AFD AFD DEF|GAB A2c BAG|AFD AFD DEF|GAB cAF G3:|

